Obsidian/actions/24s/office-chart-bar-percentage.svg

<svg height="24" viewBox="0 0 24 24" width="24" xmlns="http://www.w3.org/2000/svg"><path d="m2 2v11 1h1 11v-1h-1v-5h-4v5h-1v-6h-1v6h-2v-6h-1v6h-1v-11zm2 0v1h1v3h1v-4h-1zm4.5 0c-.831 0-1.5.669-1.5 1.5v1c0 .831.669 1.5 1.5 1.5s1.5-.669 1.5-1.5v-1c0-.831-.669-1.5-1.5-1.5zm4 0c-.831 0-1.5.669-1.5 1.5v1c0 .831.669 1.5 1.5 1.5s1.5-.669 1.5-1.5v-1c0-.831-.669-1.5-1.5-1.5zm-4 1c.277 0 .5.223.5.5v1c0 .277-.223.5-.5.5s-.5-.223-.5-.5v-1c0-.277.223-.5.5-.5zm4 0c.277 0 .5.223.5.5v1c0 .277-.223.5-.5.5s-.5-.223-.5-.5v-1c0-.277.223-.5.5-.5zm-2.5 6h2v4h-2z" fill="#bebebe" transform="translate(4 4)"/></svg>

<svg xmlns="http://www.w3.org/2000/svg" width="24" height="24" viewBox="0 0 24 24">
 <defs>
  <style id="current-color-scheme" type="text/css">
   .ColorScheme-Text { color:#bebebe; } .ColorScheme-Highlight { color:#4285f4; }
  </style>
 </defs>
 <path style="fill:currentColor" class="ColorScheme-Text" d="M 2 2 L 2 13 L 2 14 L 3 14 L 14 14 L 14 13 L 13 13 L 13 8 L 9 8 L 9 13 L 8 13 L 8 7 L 7 7 L 7 13 L 5 13 L 5 7 L 4 7 L 4 13 L 3 13 L 3 2 L 2 2 z M 4 2 L 4 3 L 5 3 L 5 6 L 6 6 L 6 2 L 5 2 L 4 2 z M 8.5 2 C 7.669 2 7 2.669 7 3.5 L 7 4.5 C 7 5.331 7.669 6 8.5 6 C 9.331 6 10 5.331 10 4.5 L 10 3.5 C 10 2.669 9.331 2 8.5 2 z M 12.5 2 C 11.669 2 11 2.669 11 3.5 L 11 4.5 C 11 5.331 11.669 6 12.5 6 C 13.331 6 14 5.331 14 4.5 L 14 3.5 C 14 2.669 13.331 2 12.5 2 z M 8.5 3 C 8.777 3 9 3.223 9 3.5 L 9 4.5 C 9 4.777 8.777 5 8.5 5 C 8.223 5 8 4.777 8 4.5 L 8 3.5 C 8 3.223 8.223 3 8.5 3 z M 12.5 3 C 12.777 3 13 3.223 13 3.5 L 13 4.5 C 13 4.777 12.777 5 12.5 5 C 12.223 5 12 4.777 12 4.5 L 12 3.5 C 12 3.223 12.223 3 12.5 3 z M 10 9 L 12 9 L 12 13 L 10 13 L 10 9 z" transform="translate(4 4)"/>
</svg>
